X:2
T:Mazurka CGF 2+ (mz07550)
S:Hanny Christen. Bd.IV  Aargau, Basel I. S.221 (mz07550) orig. B,F,Eb
S:Aus dem Repertoire der Dorfmusik Oberwil.  S.201-221
S:Ãœberliefert durch Gotti Bannier (1876-1947)
%%MIDI program 21
R:Mazurka
M:3/4
L:1/8
K:Cmaj%%MIDI gchordon
"C"G>ee2e2 | ("G7"ef)d2d2 | G>Bd2d2 | ("C"de)c2c2 | G>ce2e2 | "Dm/F"A>df2f2 | "G7"B>dg2B2 | "C"c2c2z2 :| [K:Gmaj] 
|: "D7"d2dd dd | ("G"g2d2)d2 | "Am"c2cc cc | ("Em/G"e2B2)B2 | "D7"A>Bc2c2 | "G"B>cd2d2 | "D7"c>de2f2 | "G"g2z2"_>Teil A"z2 :| [K:Fmaj] 
|: "F"c3(d Ad) | "C7"c2B2B2 | g3f ed | "F"d>cc2c2 | c3(d Ad) | ("C7"cB AB)g2 | (fe) .d.c .d.e | "F"f2f2z2 :| 
|: ("C7"cB) (Be) e2 | ("F"BA) (Af)f2 | "Bb"d>e f2d2 | "F"d2c2c2 | ("C7"cB) (Be)e2 | ("F"BA) (Af)f2 | "C7"GA Bc de | "F"f2f2z2 :| 
W:Parts: ABACD
% mz07550
% March 5, 2017

